X:041
T:Minuet TS.041
M:3/4
L:1/8
Q:3/4=40
S:Thomas Sands’ MS,1810,Lincolnshire
R:minuet
C:Prefixed as ‘No.29′ in MS
O:England;Lincolnshire
Z:vmp.Ruairidh Greig, 2011
K:G
g2(3bag (3fed|d2″tr”c2B2|g2(3bag (3fed|d2″tr”c2B2|
GDADBA|B2″tr”c2d2|GDADBD|B2″tr”c2d2|
(3def (3gfe (3dcB|{B}A6::(bg)(fe)(fg)|(af)(ed)(^cd)|
(ef)(gf)(ed)|{d}^c2(Bc)A2|aAgAfA|eAfAgA|
aAgAfA|eAfAgA|aA(B^c)(de)|fdgdad|
(3bag f2″tr”e2|d4z2|g2 (3bag (3fed|d2″tr”c2B2|
g2(3bag (3fed|d2″tr”c2B2|GDADBD|GBdgbg|
GDADBD|GBdgbg|(f/e/d/c/)B2″tr”A2|G6:|]

